;FLAVOR:Marlin
;TIME:3218
;Filament used: 0.42524m
;Layer height: 0.08
;MINX:73.6
;MINY:68.1
;MINZ:0.12
;MAXX:146.4
;MAXY:151.9
;MAXZ:1.4
;Generated with Cura_SteamEngine 4.4.1
M140 S60
M105
M190 S60
M104 S200
M105
M109 S200
M82 ;absolute extrusion mode
M201 X500.00 Y500.00 Z100.00 E5000.00 ;Setup machine max acceleration
M203 X500.00 Y500.00 Z10.00 E50.00 ;Setup machine max feedrate
M204 P500.00 R1000.00 T500.00 ;Setup Print/Retract/Travel acceleration
M205 X8.00 Y8.00 Z0.40 E5.00 ;Setup Jerk
M220 S100 ;Reset Feedrate
M221 S100 ;Reset Flowrate

G28 ;Home
M420 S ;Turn on mesh

G92 E0 ;Reset Extruder
G1 Z2.0 F3000 ;Move Z Axis up
G1 X10.1 Y20 Z0.28 F5000.0 ;Move to start position
G1 X10.1 Y200.0 Z0.28 F1500.0 E15 ;Draw the first line
G1 X10.4 Y200.0 Z0.28 F5000.0 ;Move to side a little
G1 X10.4 Y20 Z0.28 F1500.0 E30 ;Draw the second line
G92 E0 ;Reset Extruder
G1 Z2.0 F3000 ;Move Z Axis up
G92 E0
G92 E0
G1 F1500 E-6.5
;LAYER_COUNT:17
;LAYER:0
M107
G0 F6000 X76.148 Y70.77 Z0.12
;TYPE:SKIRT
G1 F1500 E0
G1 F1200 X76.733 Y70.232 E0.00793
G1 X77.289 Y69.809 E0.0149
G1 X77.62 Y69.58 E0.01892
G1 X78.296 Y69.162 E0.02685
G1 X79.01 Y68.813 E0.03478
G1 X79.755 Y68.538 E0.0427
G1 X80.573 Y68.329 E0.05113
G1 X80.96 Y68.252 E0.05506
G1 X81.747 Y68.136 E0.063
G1 X82.502 Y68.1 E0.07054
G1 X137.498 Y68.1 E0.61929
G1 X138.292 Y68.14 E0.62723
G1 X139.028 Y68.25 E0.63465
G1 X139.413 Y68.326 E0.63857
G1 X140.184 Y68.519 E0.6465
G1 X140.932 Y68.788 E0.65443
G1 X141.648 Y69.131 E0.66235
G1 X142.289 Y69.518 E0.66982
G1 X142.612 Y69.735 E0.67371
G1 X143.248 Y70.211 E0.68163
G1 X143.834 Y70.749 E0.68957
G1 X144.362 Y71.342 E0.69749
G1 X144.766 Y71.891 E0.70429
G1 X144.974 Y72.201 E0.70802
G1 X145.383 Y72.883 E0.71595
G1 X145.722 Y73.602 E0.72389
G1 X145.986 Y74.351 E0.73181
G1 X146.138 Y74.945 E0.73793
G1 X146.22 Y75.327 E0.74183
G1 X146.348 Y76.111 E0.74975
G1 X146.396 Y76.985 E0.75849
G1 X146.4 Y140.268 E1.38993
G1 X146.4 Y142.998 E1.41717
G1 X146.36 Y143.791 E1.42509
G1 X146.253 Y144.515 E1.43239
G1 X146.181 Y144.883 E1.43613
G1 X145.989 Y145.654 E1.44406
G1 X145.721 Y146.402 E1.45199
G1 X145.379 Y147.12 E1.45993
G1 X145.063 Y147.654 E1.46612
G1 X144.851 Y147.982 E1.47001
G1 X144.386 Y148.627 E1.47795
G1 X143.859 Y149.222 E1.48588
G1 X143.275 Y149.761 E1.49381
G1 X142.711 Y150.191 E1.50088
G1 X142.38 Y150.42 E1.5049
G1 X141.704 Y150.838 E1.51283
G1 X140.99 Y151.187 E1.52076
G1 X140.245 Y151.462 E1.52869
G1 X139.427 Y151.671 E1.53711
G1 X139.04 Y151.748 E1.54105
G1 X138.253 Y151.864 E1.54898
G1 X137.498 Y151.9 E1.55653
G1 X82.502 Y151.9 E2.10528
G1 X81.708 Y151.86 E2.11321
G1 X80.972 Y151.75 E2.12064
G1 X80.587 Y151.674 E2.12455
G1 X79.816 Y151.481 E2.13248
G1 X79.068 Y151.212 E2.14041
G1 X78.352 Y150.869 E2.14834
G1 X77.698 Y150.472 E2.15597
G1 X77.375 Y150.254 E2.15986
G1 X76.739 Y149.777 E2.16779
G1 X76.155 Y149.238 E2.17572
G1 X75.627 Y148.644 E2.18365
G1 X75.234 Y148.108 E2.19028
G1 X75.026 Y147.798 E2.19401
G1 X74.617 Y147.116 E2.20194
G1 X74.278 Y146.397 E2.20987
G1 X74.014 Y145.648 E2.2178
G1 X73.863 Y145.058 E2.22387
G1 X73.781 Y144.677 E2.22776
G1 X73.653 Y143.893 E2.23569
G1 X73.604 Y143.015 E2.24446
G1 X73.6 Y79.732 E2.8759
G1 X73.6 Y77.002 E2.90314
G1 X73.64 Y76.209 E2.91107
G1 X73.746 Y75.489 E2.91833
G1 X73.818 Y75.12 E2.92208
G1 X74.009 Y74.349 E2.93001
G1 X74.277 Y73.6 E2.93794
G1 X74.619 Y72.883 E2.94587
G1 X74.943 Y72.335 E2.95222
G1 X75.155 Y72.008 E2.95611
G1 X75.621 Y71.364 E2.96404
G1 X76.148 Y70.77 E2.97197
G0 F6000 X76.305 Y70.896
G1 F1200 X76.884 Y70.366 E2.9798
G1 X77.403 Y69.974 E2.98629
G1 X77.734 Y69.745 E2.9903
G1 X78.401 Y69.332 E2.99813
G1 X79.107 Y68.989 E3.00596
G1 X79.844 Y68.72 E3.01379
G1 X80.612 Y68.525 E3.0217
G1 X80.999 Y68.448 E3.02564
G1 X81.776 Y68.334 E3.03347
G1 X82.502 Y68.3 E3.04072
G1 X137.498 Y68.3 E3.58948
G1 X138.282 Y68.34 E3.59731
G1 X138.989 Y68.446 E3.60444
G1 X139.374 Y68.522 E3.60836
G1 X140.135 Y68.713 E3.61619
G1 X140.873 Y68.98 E3.62402
G1 X141.579 Y69.321 E3.63184
G1 X142.177 Y69.684 E3.63882
G1 X142.5 Y69.901 E3.6427
G1 X143.128 Y70.372 E3.65054
G1 X143.705 Y70.903 E3.65836
G1 X144.225 Y71.491 E3.66619
G1 X144.6 Y72.003 E3.67252
G1 X144.808 Y72.313 E3.67625
G1 X145.211 Y72.986 E3.68408
G1 X145.544 Y73.696 E3.6919
G1 X145.803 Y74.437 E3.69973
G1 X145.943 Y74.987 E3.7054
G1 X146.025 Y75.369 E3.7093
G1 X146.15 Y76.143 E3.71712
G1 X146.196 Y76.985 E3.72553
G1 X146.2 Y140.268 E4.35697
G1 X146.2 Y142.998 E4.38421
G1 X146.16 Y143.781 E4.39204
G1 X146.057 Y144.476 E4.39905
G1 X145.985 Y144.844 E4.40279
G1 X145.795 Y145.606 E4.41062
G1 X145.529 Y146.344 E4.41845
G1 X145.189 Y147.051 E4.42628
G1 X144.895 Y147.546 E4.43202
G1 X144.683 Y147.874 E4.43592
G1 X144.224 Y148.51 E4.44375
G1 X143.703 Y149.097 E4.45158
G1 X143.124 Y149.627 E4.45941
G1 X142.597 Y150.026 E4.46601
G1 X142.266 Y150.255 E4.47002
G1 X141.599 Y150.668 E4.47785
G1 X140.893 Y151.011 E4.48568
G1 X140.156 Y151.28 E4.49351
G1 X139.388 Y151.475 E4.50142
G1 X139.001 Y151.552 E4.50535
G1 X138.224 Y151.666 E4.51319
G1 X137.498 Y151.7 E4.52044
G1 X82.502 Y151.7 E5.06919
G1 X81.718 Y151.66 E5.07703
G1 X81.011 Y151.554 E5.08416
G1 X80.626 Y151.478 E5.08808
G1 X79.865 Y151.287 E5.0959
G1 X79.127 Y151.02 E5.10374
G1 X78.421 Y150.679 E5.11156
G1 X77.809 Y150.306 E5.11871
G1 X77.486 Y150.088 E5.1226
G1 X76.859 Y149.617 E5.13042
G1 X76.283 Y149.084 E5.13825
G1 X75.765 Y148.495 E5.14608
G1 X75.4 Y147.996 E5.15225
G1 X75.192 Y147.686 E5.15597
G1 X74.789 Y147.013 E5.1638
G1 X74.456 Y146.303 E5.17163
G1 X74.197 Y145.562 E5.17946
G1 X74.058 Y145.016 E5.18508
G1 X73.976 Y144.635 E5.18897
G1 X73.851 Y143.861 E5.19679
G1 X73.804 Y143.015 E5.20525
G1 X73.8 Y79.732 E5.83669
G1 X73.8 Y77.002 E5.86393
G1 X73.84 Y76.219 E5.87175
G1 X73.943 Y75.527 E5.87873
G1 X74.015 Y75.158 E5.88248
G1 X74.204 Y74.397 E5.89031
G1 X74.47 Y73.659 E5.89813
G1 X74.809 Y72.951 E5.90597
G1 X75.111 Y72.444 E5.91185
G1 X75.323 Y72.117 E5.91574
G1 X75.783 Y71.481 E5.92357
G1 X76.305 Y70.896 E5.9314
G0 F6000 X76.462 Y71.022
G1 F1200 X77.035 Y70.501 E5.93913
G1 X77.517 Y70.138 E5.94515
G1 X77.848 Y69.909 E5.94916
G1 X78.507 Y69.502 E5.95689
G1 X79.204 Y69.165 E5.96462
G1 X79.932 Y68.902 E5.97234
G1 X80.651 Y68.721 E5.97974
G1 X81.038 Y68.644 E5.98367
G1 X81.805 Y68.532 E5.99141
G1 X82.502 Y68.5 E5.99837
G1 X137.498 Y68.5 E6.54712
G1 X138.271 Y68.54 E6.55485
G1 X138.95 Y68.642 E6.5617
G1 X139.335 Y68.718 E6.56561
G1 X140.086 Y68.907 E6.57334
G1 X140.814 Y69.172 E6.58107
G1 X141.51 Y69.511 E6.5888
G1 X142.065 Y69.85 E6.59528
G1 X142.388 Y70.067 E6.59917
G1 X143.008 Y70.532 E6.6069
G1 X143.576 Y71.058 E6.61462
G1 X144.088 Y71.639 E6.62235
G1 X144.434 Y72.114 E6.62822
G1 X144.642 Y72.424 E6.63194
G1 X145.04 Y73.089 E6.63967
G1 X145.367 Y73.791 E6.6474
G1 X145.62 Y74.522 E6.65512
G1 X145.747 Y75.029 E6.66033
G1 X145.829 Y75.411 E6.66423
G1 X145.952 Y76.175 E6.67195
G1 X145.996 Y76.985 E6.68005
G1 X146 Y140.268 E7.31149
G1 X146 Y142.998 E7.33873
G1 X145.96 Y143.771 E7.34645
G1 X145.86 Y144.438 E7.35318
G1 X145.788 Y144.806 E7.35692
G1 X145.601 Y145.557 E7.36465
G1 X145.337 Y146.285 E7.37237
G1 X144.999 Y146.982 E7.3801
G1 X144.727 Y147.437 E7.38539
G1 X144.515 Y147.765 E7.38929
G1 X144.061 Y148.393 E7.39702
G1 X143.546 Y148.971 E7.40474
G1 X142.973 Y149.492 E7.41247
G1 X142.483 Y149.862 E7.4186
G1 X142.152 Y150.091 E7.42261
G1 X141.493 Y150.498 E7.43034
G1 X140.796 Y150.835 E7.43807
G1 X140.068 Y151.098 E7.44579
G1 X139.349 Y151.279 E7.45319
G1 X138.962 Y151.356 E7.45713
G1 X138.195 Y151.468 E7.46486
G1 X137.498 Y151.5 E7.47182
G1 X82.502 Y151.5 E8.02058
G1 X81.729 Y151.46 E8.0283
G1 X81.05 Y151.358 E8.03515
G1 X80.665 Y151.282 E8.03907
G1 X79.914 Y151.093 E8.04679
G1 X79.186 Y150.828 E8.05452
G1 X78.49 Y150.489 E8.06225
G1 X77.921 Y150.141 E8.0689
G1 X77.598 Y149.923 E8.07279
G1 X76.98 Y149.457 E8.08051
G1 X76.412 Y148.93 E8.08825
G1 X75.902 Y148.347 E8.09597
G1 X75.566 Y147.885 E8.10167
G1 X75.358 Y147.575 E8.1054
G1 X74.96 Y146.91 E8.11313
G1 X74.633 Y146.208 E8.12086
G1 X74.38 Y145.477 E8.12858
G1 X74.254 Y144.974 E8.13375
G1 X74.172 Y144.593 E8.13764
G1 X74.048 Y143.829 E8.14536
G1 X74.004 Y143.015 E8.1535
G1 X74 Y79.732 E8.78494
G1 X74 Y77.002 E8.81218
G1 X74.04 Y76.229 E8.8199
G1 X74.139 Y75.566 E8.82659
G1 X74.211 Y75.197 E8.83034
G1 X74.398 Y74.445 E8.83807
G1 X74.662 Y73.717 E8.8458
G1 X74.999 Y73.02 E8.85353
G1 X75.279 Y72.553 E8.85896
G1 X75.491 Y72.226 E8.86285
G1 X75.945 Y71.599 E8.87057
G1 X76.462 Y71.022 E8.8783
G0 F6000 X76.618 Y71.148
G1 F1200 X77.185 Y70.637 E8.88592
G1 X77.631 Y70.303 E8.89148
G1 X77.962 Y70.074 E8.89549
G1 X78.612 Y69.673 E8.90311
G1 X79.3 Y69.341 E8.91074
G1 X80.02 Y69.084 E8.91837
G1 X80.69 Y68.917 E8.92525
G1 X81.077 Y68.84 E8.92919
G1 X81.833 Y68.731 E8.93681
G1 X82.502 Y68.7 E8.9435
G1 X137.498 Y68.7 E9.49225
G1 X138.261 Y68.74 E9.49987
G1 X138.912 Y68.838 E9.50644
G1 X139.297 Y68.914 E9.51036
G1 X140.037 Y69.101 E9.51797
G1 X140.755 Y69.365 E9.52561
G1 X141.44 Y69.701 E9.53322
G1 X141.954 Y70.017 E9.53924
G1 X142.277 Y70.234 E9.54312
G1 X142.888 Y70.692 E9.55074
G1 X143.448 Y71.212 E9.55837
G1 X143.95 Y71.788 E9.56599
G1 X144.268 Y72.226 E9.57139
G1 X144.476 Y72.536 E9.57512
G1 X144.868 Y73.191 E9.58273
G1 X145.189 Y73.885 E9.59036
G1 X145.436 Y74.607 E9.59798
G1 X145.551 Y75.071 E9.60275
G1 X145.633 Y75.453 E9.60664
G1 X145.754 Y76.207 E9.61426
G1 X145.796 Y76.985 E9.62204
G1 X145.8 Y140.268 E10.25348
G1 X145.8 Y142.998 E10.28072
G1 X145.76 Y143.76 E10.28833
G1 X145.664 Y144.4 E10.29479
G1 X145.592 Y144.768 E10.29853
G1 X145.406 Y145.509 E10.30615
G1 X145.144 Y146.226 E10.31377
G1 X144.809 Y146.912 E10.32139
G1 X144.559 Y147.329 E10.32624
G1 X144.347 Y147.657 E10.33014
G1 X143.899 Y148.276 E10.33776
G1 X143.389 Y148.844 E10.34538
G1 X142.823 Y149.357 E10.353
G1 X142.369 Y149.697 E10.35866
G1 X142.038 Y149.926 E10.36268
G1 X141.388 Y150.327 E10.3703
G1 X140.7 Y150.659 E10.37792
G1 X139.98 Y150.916 E10.38555
G1 X139.31 Y151.083 E10.39244
G1 X138.923 Y151.16 E10.39637
G1 X138.167 Y151.269 E10.404
G1 X137.498 Y151.3 E10.41068
G1 X82.502 Y151.3 E10.95943
G1 X81.739 Y151.26 E10.96705
G1 X81.088 Y151.162 E10.97362
G1 X80.703 Y151.086 E10.97754
G1 X79.963 Y150.899 E10.98515
G1 X79.245 Y150.635 E10.99279
G1 X78.56 Y150.299 E11.0004
G1 X78.033 Y149.975 E11.00657
G1 X77.71 Y149.757 E11.01046
G1 X77.1 Y149.297 E11.01808
G1 X76.542 Y148.776 E11.0257
G1 X76.041 Y148.199 E11.03333
G1 X75.732 Y147.773 E11.03858
G1 X75.524 Y147.463 E11.0423
G1 X75.132 Y146.808 E11.04992
G1 X74.811 Y146.114 E11.05755
G1 X74.564 Y145.392 E11.06516
G1 X74.449 Y144.932 E11.06989
G1 X74.367 Y144.551 E11.07378
G1 X74.246 Y143.797 E11.0814
G1 X74.204 Y143.015 E11.08922
G1 X74.2 Y79.732 E11.72066
G1 X74.2 Y77.002 E11.7479
G1 X74.24 Y76.24 E11.75551
G1 X74.335 Y75.604 E11.76193
G1 X74.407 Y75.235 E11.76568
G1 X74.592 Y74.494 E11.7733
G1 X74.854 Y73.776 E11.78093
G1 X75.19 Y73.09 E11.78855
G1 X75.447 Y72.662 E11.79353
G1 X75.659 Y72.335 E11.79742
G1 X76.107 Y71.716 E11.80504
G1 X76.618 Y71.148 E11.81267
G0 F6000 X76.774 Y71.275
G1 F1200 X77.335 Y70.772 E11.82018
G1 X77.744 Y70.467 E11.82527
G1 X78.075 Y70.238 E11.82929
G1 X78.717 Y69.843 E11.83681
G1 X79.397 Y69.518 E11.84433
G1 X80.107 Y69.267 E11.85185
G1 X80.729 Y69.113 E11.85824
G1 X81.116 Y69.036 E11.86218
G1 X81.862 Y68.929 E11.8697
G1 X82.502 Y68.9 E11.87609
G1 X137.498 Y68.9 E12.42484
G1 X138.25 Y68.94 E12.43236
G1 X138.873 Y69.034 E12.43864
G1 X139.258 Y69.11 E12.44256
G1 X139.988 Y69.295 E12.45007
G1 X140.695 Y69.557 E12.4576
G1 X141.37 Y69.891 E12.46511
G1 X141.842 Y70.183 E12.47065
G1 X142.165 Y70.4 E12.47453
G1 X142.768 Y70.852 E12.48205
G1 X143.318 Y71.366 E12.48956
G1 X143.812 Y71.936 E12.49709
G1 X144.102 Y72.337 E12.50203
G1 X144.31 Y72.647 E12.50575
G1 X144.696 Y73.294 E12.51327
G1 X145.011 Y73.978 E12.52078
G1 X145.252 Y74.692 E12.5283
G1 X145.356 Y75.113 E12.53263
G1 X145.438 Y75.495 E12.53653
G1 X145.557 Y76.239 E12.54404
G1 X145.596 Y76.985 E12.5515
G1 X145.6 Y140.268 E13.18294
G1 X145.6 Y142.998 E13.21018
G1 X145.56 Y143.75 E13.21769
G1 X145.468 Y144.361 E13.22386
G1 X145.396 Y144.729 E13.2276
G1 X145.212 Y145.46 E13.23512
G1 X144.952 Y146.167 E13.24264
G1 X144.619 Y146.843 E13.25016
G1 X144.391 Y147.22 E13.25455
G1 X144.179 Y147.548 E13.25845
G1 X143.737 Y148.158 E13.26597
G1 X143.233 Y148.718 E13.27348
G1 X142.672 Y149.221 E13.281
G1 X142.256 Y149.533 E13.28619
G1 X141.925 Y149.762 E13.29021
G1 X141.283 Y150.157 E13.29773
G1 X140.603 Y150.482 E13.30525
G1 X139.893 Y150.733 E13.31276
G1 X139.271 Y150.887 E13.31916
G1 X138.884 Y150.964 E13.32309
G1 X138.138 Y151.071 E13.33061
G1 X137.498 Y151.1 E13.33701
G1 X82.502 Y151.1 E13.88576
G1 X81.75 Y151.06 E13.89327
G1 X81.127 Y150.966 E13.89956
G1 X80.742 Y150.89 E13.90347
G1 X80.012 Y150.705 E13.91099
G1 X79.305 Y150.443 E13.91851
G1 X78.63 Y150.109 E13.92603
G1 X78.145 Y149.809 E13.93172
G1 X77.822 Y149.591 E13.93561
G1 X77.221 Y149.137 E13.94312
G1 X76.671 Y148.622 E13.95064
G1 X76.179 Y148.051 E13.95816
G1 X75.898 Y147.662 E13.96295
G1 X75.69 Y147.352 E13.96667
G1 X75.304 Y146.705 E13.97419
G1 X74.989 Y146.021 E13.9817
G1 X74.748 Y145.307 E13.98922
G1 X74.645 Y144.89 E13.99351
G1 X74.563 Y144.509 E13.9974
G1 X74.444 Y143.765 E14.00492
G1 X74.404 Y143.015 E14.01241
G1 X74.4 Y79.732 E14.64385
G1 X74.4 Y77.002 E14.67109
G1 X74.44 Y76.25 E14.6786
G1 X74.531 Y75.642 E14.68474
G1 X74.603 Y75.273 E14.68849
G1 X74.787 Y74.543 E14.696
G1 X75.046 Y73.835 E14.70352
G1 X75.38 Y73.16 E14.71104
G1 X75.614 Y72.771 E14.71557
G1 X75.826 Y72.444 E14.71946
G1 X76.269 Y71.834 E14.72698
G1 X76.774 Y71.275 E14.7345
G0 F6000 X76.93 Y71.402
G1 F1200 X77.485 Y70.909 E14.7419
G1 X77.858 Y70.632 E14.74654
G1 X78.189 Y70.403 E14.75056
G1 X78.822 Y70.014 E14.75797
G1 X79.493 Y69.695 E14.76538
G1 X80.194 Y69.45 E14.77279
G1 X80.769 Y69.31 E14.7787
G1 X81.156 Y69.233 E14.78263
G1 X81.891 Y69.127 E14.79004
G1 X82.502 Y69.1 E14.79615
G1 X137.498 Y69.1 E15.3449
G1 X138.24 Y69.14 E15.35231
G1 X138.834 Y69.231 E15.35831
G1 X139.219 Y69.307 E15.36222
G1 X139.939 Y69.489 E15.36963
G1 X140.635 Y69.749 E15.37705
G1 X141.299 Y70.081 E15.38446
G1 X141.731 Y70.349 E15.38953
G1 X142.054 Y70.566 E15.39341
G1 X142.647 Y71.012 E15.40081
G1 X143.189 Y71.52 E15.40823
G1 X143.673 Y72.083 E15.41563
G1 X143.936 Y72.449 E15.42013
G1 X144.144 Y72.759 E15.42386
G1 X144.524 Y73.397 E15.43127
G1 X144.833 Y74.072 E15.43867
G1 X145.068 Y74.776 E15.44608
G1 X145.16 Y75.155 E15.44997
G1 X145.242 Y75.537 E15.45387
G1 X145.359 Y76.27 E15.46128
G1 X145.396 Y76.985 E15.46842
G1 X145.4 Y140.268 E16.09986
G1 X145.4 Y142.998 E16.1271
G1 X145.36 Y143.739 E16.1345
G1 X145.272 Y144.323 E16.1404
G1 X145.2 Y144.691 E16.14414
G1 X145.018 Y145.411 E16.15155
G1 X144.76 Y146.107 E16.15896
G1 X144.429 Y146.772 E16.16637
G1 X144.223 Y147.112 E16.17033
G1 X144.011 Y147.44 E16.17423
G1 X143.575 Y148.041 E16.18164
G1 X143.077 Y148.591 E16.18904
G1 X142.522 Y149.085 E16.19646
G1 X142.142 Y149.368 E16.20118
G1 X141.811 Y149.597 E16.2052
G1 X141.178 Y149.986 E16.21261
G1 X140.507 Y150.305 E16.22003
G1 X139.806 Y150.55 E16.22744
G1 X139.231 Y150.69 E16.23334
G1 X138.844 Y150.767 E16.23728
G1 X138.109 Y150.873 E16.24469
G1 X137.498 Y150.9 E16.25079
G1 X82.502 Y150.9 E16.79954
G1 X81.76 Y150.86 E16.80696
G1 X81.166 Y150.769 E16.81295
G1 X80.781 Y150.693 E16.81687
G1 X80.061 Y150.511 E16.82428
G1 X79.365 Y150.251 E16.83169
G1 X78.701 Y149.919 E16.8391
G1 X78.257 Y149.643 E16.84432
G1 X77.934 Y149.425 E16.84821
G1 X77.342 Y148.977 E16.85561
G1 X76.801 Y148.468 E16.86303
G1 X76.318 Y147.904 E16.87043
G1 X76.064 Y147.55 E16.87478
G1 X75.856 Y147.24 E16.87851
G1 X75.476 Y146.602 E16.88592
G1 X75.167 Y145.927 E16.89332
G1 X74.932 Y145.223 E16.90073
G1 X74.84 Y144.848 E16.90458
G1 X74.758 Y144.467 E16.90847
G1 X74.641 Y143.733 E16.91589
G1 X74.604 Y143.015 E16.92306
G1 X74.6 Y79.732 E17.5545
G1 X74.6 Y77.002 E17.58174
G1 X74.64 Y76.261 E17.58915
G1 X74.728 Y75.681 E17.595
G1 X74.8 Y75.312 E17.59875
G1 X74.981 Y74.591 E17.60617
G1 X75.239 Y73.895 E17.61357
G1 X75.57 Y73.23 E17.62099
G1 X75.782 Y72.879 E17.62508
