;FLAVOR:Marlin
;TIME:1481
;Filament used: 0.434242m
;Layer height: 0.12
;MINX:73.7
;MINY:68.2
;MINZ:0.12
;MAXX:146.3
;MAXY:151.8
;MAXZ:1.44
;Generated with Cura_SteamEngine 4.4.1
M140 S60
M105
M190 S60
M104 S200
M105
M109 S200
M82 ;absolute extrusion mode
M201 X500.00 Y500.00 Z100.00 E5000.00 ;Setup machine max acceleration
M203 X500.00 Y500.00 Z10.00 E50.00 ;Setup machine max feedrate
M204 P500.00 R1000.00 T500.00 ;Setup Print/Retract/Travel acceleration
M205 X8.00 Y8.00 Z0.40 E5.00 ;Setup Jerk
M220 S100 ;Reset Feedrate
M221 S100 ;Reset Flowrate

G28 ;Home
M420 S ;Turn on mesh

G92 E0 ;Reset Extruder
G1 Z2.0 F3000 ;Move Z Axis up
G1 X10.1 Y20 Z0.28 F5000.0 ;Move to start position
G1 X10.1 Y200.0 Z0.28 F1500.0 E15 ;Draw the first line
G1 X10.4 Y200.0 Z0.28 F5000.0 ;Move to side a little
G1 X10.4 Y20 Z0.28 F1500.0 E30 ;Draw the second line
G92 E0 ;Reset Extruder
G1 Z2.0 F3000 ;Move Z Axis up
G92 E0
G92 E0
G1 F1500 E-6.5
;LAYER_COUNT:12
;LAYER:0
M107
G0 F6000 X76.227 Y70.833 Z0.12
;TYPE:SKIRT
G1 F1500 E0
G1 F1200 X76.808 Y70.299 E0.01575
G1 X77.346 Y69.892 E0.02921
G1 X77.677 Y69.663 E0.03724
G1 X78.349 Y69.247 E0.05301
G1 X79.058 Y68.901 E0.06876
G1 X79.8 Y68.629 E0.08453
G1 X80.593 Y68.427 E0.10086
G1 X80.98 Y68.35 E0.10873
G1 X81.761 Y68.235 E0.12449
G1 X82.502 Y68.2 E0.13929
G1 X137.498 Y68.2 E1.2368
G1 X138.287 Y68.24 E1.25256
G1 X139.009 Y68.348 E1.26713
G1 X139.394 Y68.424 E1.27496
G1 X140.16 Y68.616 E1.29072
G1 X140.902 Y68.884 E1.30647
G1 X141.614 Y69.226 E1.32223
G1 X142.233 Y69.601 E1.33667
G1 X142.556 Y69.818 E1.34444
G1 X143.188 Y70.291 E1.36019
G1 X143.769 Y70.826 E1.37595
G1 X144.294 Y71.417 E1.39173
G1 X144.683 Y71.947 E1.40485
G1 X144.891 Y72.257 E1.4123
G1 X145.297 Y72.934 E1.42805
G1 X145.633 Y73.649 E1.44382
G1 X145.895 Y74.394 E1.45957
G1 X146.04 Y74.966 E1.47135
G1 X146.122 Y75.348 E1.47915
G1 X146.249 Y76.127 E1.4949
G1 X146.296 Y76.985 E1.51205
G1 X146.3 Y140.268 E2.77493
G1 X146.3 Y142.998 E2.82941
G1 X146.26 Y143.786 E2.84515
G1 X146.156 Y144.492 E2.85939
G1 X146.084 Y144.861 E2.8669
G1 X145.893 Y145.627 E2.88265
G1 X145.627 Y146.37 E2.8984
G1 X145.286 Y147.083 E2.91417
G1 X144.973 Y147.61 E2.9264
G1 X144.761 Y147.937 E2.93418
G1 X144.298 Y148.577 E2.94995
G1 X143.773 Y149.167 E2.96571
G1 X143.192 Y149.701 E2.98145
G1 X142.654 Y150.108 E2.99492
G1 X142.323 Y150.337 E3.00295
G1 X141.651 Y150.753 E3.01872
G1 X140.942 Y151.099 E3.03446
G1 X140.2 Y151.371 E3.05024
G1 X139.407 Y151.573 E3.06657
G1 X139.02 Y151.65 E3.07444
G1 X138.239 Y151.765 E3.09019
G1 X137.498 Y151.8 E3.105
G1 X82.502 Y151.8 E4.2025
G1 X81.713 Y151.76 E4.21827
G1 X80.991 Y151.652 E4.23284
G1 X80.606 Y151.576 E4.24067
G1 X79.84 Y151.384 E4.25643
G1 X79.098 Y151.116 E4.27217
G1 X78.386 Y150.774 E4.28793
G1 X77.753 Y150.389 E4.30272
G1 X77.43 Y150.171 E4.3105
G1 X76.799 Y149.697 E4.32624
G1 X76.219 Y149.161 E4.342
G1 X75.696 Y148.57 E4.35775
G1 X75.323 Y148.062 E4.37033
G1 X75.115 Y147.753 E4.37776
G1 X74.708 Y147.076 E4.39353
G1 X74.371 Y146.362 E4.40928
G1 X74.109 Y145.617 E4.42504
G1 X73.96 Y145.034 E4.43705
G1 X73.878 Y144.652 E4.44485
G1 X73.751 Y143.873 E4.4606
G1 X73.704 Y143.015 E4.47775
G1 X73.7 Y79.732 E5.74063
G1 X73.7 Y77.002 E5.79511
G1 X73.74 Y76.214 E5.81085
G1 X73.844 Y75.508 E5.8251
G1 X73.916 Y75.139 E5.8326
G1 X74.107 Y74.373 E5.84835
G1 X74.373 Y73.63 E5.8641
G1 X74.714 Y72.917 E5.87987
G1 X75.027 Y72.39 E5.89211
G1 X75.239 Y72.063 E5.89988
G1 X75.702 Y71.423 E5.91565
G1 X76.227 Y70.833 E5.93141
G0 F6000 X76.54 Y71.085
G1 F1200 X77.11 Y70.569 E5.94675
G1 X77.574 Y70.22 E5.95834
G1 X77.905 Y69.991 E5.96637
G1 X78.559 Y69.587 E5.98171
G1 X79.252 Y69.253 E5.99706
G1 X79.976 Y68.993 E6.01241
G1 X80.671 Y68.819 E6.02671
G1 X81.058 Y68.742 E6.03459
G1 X81.819 Y68.632 E6.04993
G1 X82.502 Y68.6 E6.06357
G1 X137.498 Y68.6 E7.16108
G1 X138.266 Y68.64 E7.17643
G1 X138.931 Y68.74 E7.18985
G1 X139.316 Y68.816 E7.19768
G1 X140.062 Y69.004 E7.21303
G1 X140.784 Y69.268 E7.22837
G1 X141.475 Y69.606 E7.24372
G1 X142.01 Y69.933 E7.25624
G1 X142.333 Y70.15 E7.264
G1 X142.948 Y70.612 E7.27935
G1 X143.512 Y71.135 E7.2947
G1 X144.019 Y71.714 E7.31006
G1 X144.351 Y72.17 E7.32132
G1 X144.559 Y72.48 E7.32877
G1 X144.954 Y73.14 E7.34412
G1 X145.278 Y73.838 E7.35947
G1 X145.528 Y74.565 E7.37481
G1 X145.649 Y75.05 E7.38479
G1 X145.731 Y75.432 E7.39259
G1 X145.853 Y76.191 E7.40793
G1 X145.896 Y76.985 E7.4238
G1 X145.9 Y140.268 E8.68668
G1 X145.9 Y142.998 E8.74116
G1 X145.86 Y143.766 E8.7565
G1 X145.763 Y144.415 E8.7696
G1 X145.691 Y144.784 E8.7771
G1 X145.505 Y145.53 E8.79244
G1 X145.242 Y146.253 E8.8078
G1 X144.906 Y146.945 E8.82315
G1 X144.637 Y147.393 E8.83358
G1 X144.425 Y147.72 E8.84135
G1 X143.974 Y148.342 E8.85669
G1 X143.46 Y148.915 E8.87205
G1 X142.89 Y149.431 E8.88739
G1 X142.426 Y149.78 E8.89898
G1 X142.095 Y150.009 E8.90701
G1 X141.441 Y150.413 E8.92235
G1 X140.748 Y150.747 E8.9377
G1 X140.024 Y151.007 E8.95305
G1 X139.329 Y151.181 E8.96735
G1 X138.942 Y151.258 E8.97523
G1 X138.181 Y151.368 E8.99057
G1 X137.498 Y151.4 E9.00422
G1 X82.502 Y151.4 E10.10172
G1 X81.734 Y151.36 E10.11707
G1 X81.069 Y151.26 E10.13049
G1 X80.684 Y151.184 E10.13832
G1 X79.938 Y150.996 E10.15367
G1 X79.216 Y150.732 E10.16901
G1 X78.525 Y150.394 E10.18436
G1 X77.977 Y150.058 E10.19719
G1 X77.654 Y149.84 E10.20497
G1 X77.04 Y149.377 E10.22031
G1 X76.477 Y148.853 E10.23566
G1 X75.971 Y148.273 E10.25102
G1 X75.655 Y147.838 E10.26175
G1 X75.447 Y147.529 E10.26919
G1 X75.051 Y146.87 E10.28453
G1 X74.726 Y146.173 E10.29988
G1 X74.475 Y145.446 E10.31522
G1 X74.351 Y144.95 E10.32543
G1 X74.269 Y144.568 E10.33322
G1 X74.147 Y143.809 E10.34857
G1 X74.104 Y143.015 E10.36443
G1 X74.1 Y79.732 E11.62731
G1 X74.1 Y77.002 E11.68179
G1 X74.14 Y76.234 E11.69714
G1 X74.237 Y75.585 E11.71024
G1 X74.309 Y75.216 E11.71774
G1 X74.495 Y74.47 E11.73308
G1 X74.758 Y73.747 E11.74844
G1 X75.094 Y73.055 E11.76379
G1 X75.363 Y72.607 E11.77422
G1 X75.575 Y72.28 E11.78199
G1 X76.026 Y71.658 E11.79732
G1 X76.54 Y71.085 E11.81269
G0 F6000 X76.852 Y71.338
G1 F1200 X77.411 Y70.84 E11.82763
G1 X77.801 Y70.549 E11.83734
G1 X78.132 Y70.32 E11.84537
G1 X78.769 Y69.928 E11.8603
G1 X79.445 Y69.606 E11.87524
G1 X80.15 Y69.358 E11.89015
G1 X80.749 Y69.212 E11.90246
G1 X81.136 Y69.135 E11.91033
G1 X81.876 Y69.028 E11.92525
G1 X82.502 Y69 E11.93776
G1 X137.498 Y69 E13.03526
G1 X138.245 Y69.04 E13.05019
G1 X138.854 Y69.133 E13.06248
G1 X139.239 Y69.209 E13.07031
G1 X139.964 Y69.392 E13.08524
G1 X140.665 Y69.653 E13.10016
G1 X141.335 Y69.986 E13.1151
G1 X141.787 Y70.266 E13.12571
G1 X142.11 Y70.483 E13.13347
G1 X142.707 Y70.932 E13.14838
G1 X143.254 Y71.443 E13.16332
G1 X143.742 Y72.01 E13.17825
G1 X144.019 Y72.393 E13.18768
G1 X144.227 Y72.703 E13.19513
G1 X144.61 Y73.345 E13.21005
G1 X144.922 Y74.025 E13.22498
G1 X145.16 Y74.734 E13.2399
G1 X145.258 Y75.134 E13.24812
G1 X145.34 Y75.516 E13.25592
G1 X145.458 Y76.255 E13.27085
G1 X145.496 Y76.985 E13.28544
G1 X145.5 Y140.268 E14.54832
G1 X145.5 Y142.998 E14.6028
G1 X145.46 Y143.745 E14.61773
G1 X145.37 Y144.339 E14.62972
G1 X145.298 Y144.708 E14.63722
G1 X145.116 Y145.433 E14.65214
G1 X144.857 Y146.135 E14.66707
G1 X144.525 Y146.805 E14.68199
G1 X144.302 Y147.175 E14.69061
G1 X144.09 Y147.502 E14.69839
G1 X143.65 Y148.107 E14.71332
G1 X143.148 Y148.662 E14.72825
G1 X142.589 Y149.16 E14.74319
G1 X142.199 Y149.451 E14.7529
G1 X141.868 Y149.68 E14.76094
G1 X141.231 Y150.072 E14.77586
G1 X140.555 Y150.394 E14.7908
G1 X139.85 Y150.642 E14.80572
G1 X139.251 Y150.788 E14.81802
G1 X138.864 Y150.865 E14.8259
G1 X138.124 Y150.972 E14.84082
G1 X137.498 Y151 E14.85332
G1 X82.502 Y151 E15.95083
G1 X81.755 Y150.96 E15.96576
G1 X81.146 Y150.867 E15.97805
G1 X80.761 Y150.791 E15.98588
G1 X80.036 Y150.608 E16.0008
G1 X79.335 Y150.347 E16.01573
G1 X78.665 Y150.014 E16.03066
G1 X78.201 Y149.726 E16.04156
G1 X77.878 Y149.508 E16.04934
G1 X77.281 Y149.057 E16.06427
G1 X76.736 Y148.545 E16.07919
G1 X76.248 Y147.978 E16.09412
G1 X75.987 Y147.615 E16.10304
G1 X75.779 Y147.306 E16.11047
G1 X75.395 Y146.664 E16.1254
G1 X75.082 Y145.985 E16.14032
G1 X74.843 Y145.276 E16.15526
G1 X74.742 Y144.866 E16.16368
G1 X74.66 Y144.484 E16.17148
G1 X74.542 Y143.745 E16.18641
G1 X74.504 Y143.015 E16.201
G1 X74.5 Y79.732 E17.46388
G1 X74.5 Y77.002 E17.51836
G1 X74.54 Y76.255 E17.53329
G1 X74.63 Y75.661 E17.54528
G1 X74.702 Y75.292 E17.55278
G1 X74.884 Y74.567 E17.5677
G1 X75.143 Y73.865 E17.58263
G1 X75.475 Y73.195 E17.59755
G1 X75.698 Y72.825 E17.60617
G1 X75.91 Y72.498 E17.61395
G1 X76.35 Y71.893 E17.62888
G1 X76.852 Y71.338 E17.64381
G0 F6000 X77.164 Y71.593
G1 F1200 X77.71 Y71.113 E17.65832
G1 X78.029 Y70.878 E17.66623
G1 X78.36 Y70.649 E17.67426
G1 X78.979 Y70.27 E17.68875
G1 X79.636 Y69.96 E17.70324
G1 X80.323 Y69.725 E17.71773
G1 X80.827 Y69.604 E17.72808
G1 X81.214 Y69.527 E17.73595
G1 X81.933 Y69.425 E17.75044
G1 X82.502 Y69.4 E17.76181
G1 X137.498 Y69.4 E18.85931
G1 X138.223 Y69.44 E18.8738
G1 X138.776 Y69.525 E18.88497
G1 X139.161 Y69.601 E18.8928
G1 X139.865 Y69.781 E18.9073
G1 X140.545 Y70.037 E18.9218
G1 X141.192 Y70.366 E18.93629
G1 X141.564 Y70.598 E18.94504
G1 X141.887 Y70.815 E18.9528
G1 X142.466 Y71.252 E18.96728
G1 X142.994 Y71.751 E18.98177
G1 X143.465 Y72.305 E18.99629
G1 X143.687 Y72.616 E19.00391
G1 X143.895 Y72.926 E19.01136
G1 X144.266 Y73.55 E19.02585
G1 X144.566 Y74.212 E19.04035
G1 X144.867 Y75.218 E19.06131
G1 X144.949 Y75.6 E19.0691
G1 X145.062 Y76.317 E19.08359
G1 X145.096 Y76.985 E19.09694
G1 X145.1 Y140.268 E20.35982
G1 X145.1 Y142.998 E20.4143
G1 X145.06 Y143.723 E20.42879
G1 X144.978 Y144.262 E20.43967
G1 X144.906 Y144.631 E20.44717
G1 X144.728 Y145.335 E20.46166
G1 X144.473 Y146.015 E20.47616
G1 X143.966 Y146.957 E20.4975
G1 X143.754 Y147.284 E20.50528
G1 X143.326 Y147.871 E20.51978
G1 X142.836 Y148.407 E20.53427
G1 X142.29 Y148.887 E20.54878
G1 X141.971 Y149.122 E20.55669
G1 X141.64 Y149.351 E20.56472
G1 X141.021 Y149.73 E20.5792
G1 X140.364 Y150.04 E20.5937
G1 X139.677 Y150.275 E20.60819
G1 X139.173 Y150.396 E20.61853
G1 X138.786 Y150.473 E20.62641
G1 X138.067 Y150.575 E20.6409
G1 X137.498 Y150.6 E20.65227
G1 X82.502 Y150.6 E21.74977
G1 X81.777 Y150.56 E21.76426
G1 X81.224 Y150.475 E21.77543
G1 X80.839 Y150.399 E21.78326
G1 X80.135 Y150.219 E21.79776
G1 X79.455 Y149.963 E21.81226
G1 X78.808 Y149.634 E21.82674
G1 X78.425 Y149.395 E21.83575
G1 X78.102 Y149.177 E21.84353
G1 X77.523 Y148.738 E21.85803
G1 X76.996 Y148.238 E21.87253
G1 X76.319 Y147.392 E21.89415
G1 X76.111 Y147.083 E21.90158
G1 X75.739 Y146.459 E21.91608
G1 X75.438 Y145.797 E21.93059
G1 X75.133 Y144.782 E21.95174
G1 X75.051 Y144.4 E21.95954
G1 X74.938 Y143.683 E21.97402
G1 X74.904 Y143.015 E21.98737
G1 X74.9 Y79.732 E23.25025
G1 X74.9 Y77.002 E23.30473
G1 X74.94 Y76.277 E23.31922
G1 X75.022 Y75.738 E23.3301
G1 X75.094 Y75.369 E23.33761
G1 X75.272 Y74.665 E23.3521
G1 X75.527 Y73.985 E23.36659
G1 X76.034 Y73.043 E23.38794
G1 X76.246 Y72.716 E23.39572
G1 X76.674 Y72.129 E23.41021
G1 X77.164 Y71.593 E23.42471
G0 F6000 X77.475 Y71.848
G1 F1200 X78.257 Y71.207 E23.44488
G1 X78.588 Y70.978 E23.45292
G1 X79.188 Y70.611 E23.46695
G1 X79.827 Y70.315 E23.48101
G1 X80.495 Y70.092 E23.49506
G1 X80.905 Y69.996 E23.50346
G1 X81.292 Y69.919 E23.51134
G1 X81.989 Y69.821 E23.52538
G1 X82.502 Y69.8 E23.53563
G1 X137.498 Y69.8 E24.63313
G1 X138.201 Y69.84 E24.64719
G1 X138.699 Y69.917 E24.65724
G1 X139.084 Y69.993 E24.66507
G1 X139.766 Y70.169 E24.67913
G1 X140.423 Y70.42 E24.69317
G1 X141.341 Y70.93 E24.71412
G1 X141.664 Y71.147 E24.72189
G1 X142.225 Y71.572 E24.73593
G1 X142.734 Y72.058 E24.74998
G1 X143.354 Y72.839 E24.76988
G1 X143.562 Y73.149 E24.77733
G1 X143.921 Y73.754 E24.79137
G1 X144.208 Y74.397 E24.80542
G1 X144.476 Y75.302 E24.82425
G1 X144.558 Y75.684 E24.83205
G1 X144.666 Y76.379 E24.84609
G1 X144.696 Y76.985 E24.85819
G1 X144.7 Y140.268 E26.12107
G1 X144.7 Y142.998 E26.17556
G1 X144.66 Y143.7 E26.18959
G1 X144.585 Y144.185 E26.19938
G1 X144.513 Y144.554 E26.20688
G1 X144.339 Y145.237 E26.22095
G1 X144.089 Y145.895 E26.235
G1 X143.63 Y146.74 E26.25419
G1 X143.418 Y147.067 E26.26196
G1 X143.002 Y147.635 E26.27601
G1 X142.525 Y148.152 E26.29005
G1 X141.743 Y148.793 E26.31023
G1 X141.412 Y149.022 E26.31826
G1 X140.812 Y149.389 E26.3323
G1 X140.173 Y149.685 E26.34635
G1 X139.505 Y149.908 E26.3604
G1 X139.095 Y150.004 E26.36881
G1 X138.708 Y150.081 E26.37668
G1 X138.011 Y150.179 E26.39073
G1 X137.498 Y150.2 E26.40097
G1 X82.502 Y150.2 E27.49848
G1 X81.799 Y150.16 E27.51253
G1 X81.301 Y150.083 E27.52259
G1 X80.916 Y150.007 E27.53042
G1 X80.234 Y149.831 E27.54447
G1 X79.577 Y149.58 E27.55851
G1 X78.952 Y149.255 E27.57257
G1 X78.649 Y149.063 E27.57973
G1 X78.326 Y148.845 E27.5875
G1 X77.765 Y148.419 E27.60156
G1 X77.257 Y147.932 E27.6156
G1 X76.651 Y147.168 E27.63506
G1 X76.443 Y146.859 E27.6425
G1 X76.083 Y146.254 E27.65655
G1 X75.795 Y145.612 E27.67059
G1 X75.524 Y144.698 E27.68961
G1 X75.442 Y144.316 E27.69741
G1 X75.334 Y143.621 E27.71145
G1 X75.304 Y143.015 E27.72355
G1 X75.3 Y79.732 E28.98644
G1 X75.3 Y77.002 E29.04092
G1 X75.34 Y76.3 E29.05495
G1 X75.415 Y75.815 E29.06474
G1 X75.487 Y75.446 E29.07224
G1 X75.661 Y74.763 E29.08631
G1 X75.911 Y74.105 E29.10036
G1 X76.37 Y73.26 E29.11955
G1 X76.582 Y72.933 E29.12732
G1 X76.998 Y72.365 E29.14137
G1 X77.475 Y71.848 E29.15541
G0 F6000 X77.785 Y72.105
G1 F1200 X78.484 Y71.536 E29.1734
G1 X78.815 Y71.307 E29.18143
G1 X79.397 Y70.953 E29.19502
G1 X80.016 Y70.67 E29.20861
G1 X80.983 Y70.389 E29.2287
G1 X81.37 Y70.312 E29.23658
G1 X82.045 Y70.218 E29.25018
G1 X82.502 Y70.2 E29.2593
G1 X137.498 Y70.2 E30.35681
G1 X138.178 Y70.24 E30.3704
G1 X138.621 Y70.31 E30.37935
G1 X139.006 Y70.386 E30.38718
G1 X139.665 Y70.557 E30.40077
G1 X140.3 Y70.804 E30.41437
G1 X141.117 Y71.262 E30.43306
G1 X141.44 Y71.479 E30.44082
G1 X141.982 Y71.891 E30.45441
G1 X142.472 Y72.364 E30.468
G1 X143.022 Y73.061 E30.48572
G1 X143.23 Y73.371 E30.49317
G1 X143.576 Y73.958 E30.50677
G1 X143.85 Y74.581 E30.52035
G1 X144.085 Y75.386 E30.53708
G1 X144.167 Y75.768 E30.54488
G1 X144.27 Y76.441 E30.55847
G1 X144.296 Y76.985 E30.56934
G1 X144.3 Y140.268 E31.83222
G1 X144.3 Y142.998 E31.8867
G1 X144.26 Y143.677 E31.90027
G1 X144.193 Y144.109 E31.909
G1 X144.121 Y144.478 E31.9165
G1 X143.951 Y145.137 E31.93008
G1 X143.706 Y145.772 E31.94366
G1 X143.295 Y146.522 E31.96073
G1 X143.083 Y146.849 E31.96851
G1 X142.679 Y147.398 E31.98211
G1 X142.215 Y147.895 E31.99568
G1 X141.516 Y148.464 E32.01366
G1 X141.185 Y148.693 E32.0217
G1 X140.603 Y149.047 E32.03529
G1 X139.984 Y149.33 E32.04887
G1 X139.017 Y149.611 E32.06897
G1 X138.63 Y149.688 E32.07684
G1 X137.955 Y149.782 E32.09044
G1 X137.498 Y149.8 E32.09957
G1 X82.502 Y149.8 E33.19708
G1 X81.822 Y149.76 E33.21067
G1 X81.379 Y149.69 E33.21962
G1 X80.994 Y149.614 E33.22745
G1 X80.335 Y149.443 E33.24104
G1 X79.7 Y149.196 E33.25463
G1 X78.872 Y148.731 E33.27359
G1 X78.549 Y148.513 E33.28136
G1 X78.008 Y148.1 E33.29494
G1 X77.519 Y147.626 E33.30853
G1 X76.983 Y146.945 E33.32583
G1 X76.775 Y146.636 E33.33326
G1 X76.428 Y146.05 E33.34685
G1 X76.153 Y145.427 E33.36044
G1 X75.915 Y144.614 E33.37735
G1 X75.833 Y144.232 E33.38515
G1 X75.73 Y143.559 E33.39873
G1 X75.704 Y143.015 E33.4096
G1 X75.7 Y79.732 E34.67248
G1 X75.7 Y77.002 E34.72696
G1 X75.74 Y76.323 E34.74054
G1 X75.807 Y75.891 E34.74926
G1 X75.879 Y75.522 E34.75676
G1 X76.049 Y74.863 E34.77034
G1 X76.294 Y74.228 E34.78393
G1 X76.705 Y73.478 E34.80099
G1 X76.917 Y73.151 E34.80877
G1 X77.321 Y72.602 E34.82237
G1 X77.785 Y72.105 E34.83594
G0 F6000 X78.095 Y72.363
G1 F1200 X78.712 Y71.865 E34.85177
G1 X79.043 Y71.636 E34.8598
G1 X79.605 Y71.296 E34.87291
G1 X80.204 Y71.027 E34.88601
G1 X81.061 Y70.781 E34.9038
G1 X81.448 Y70.704 E34.91168
G1 X82.099 Y70.615 E34.92479
G1 X82.502 Y70.6 E34.93284
G1 X137.498 Y70.6 E36.03034
G1 X138.154 Y70.64 E36.04346
G1 X138.544 Y70.702 E36.05134
G1 X138.929 Y70.778 E36.05917
G1 X139.564 Y70.944 E36.07227
G1 X140.175 Y71.187 E36.08539
G1 X140.894 Y71.594 E36.10188
G1 X141.217 Y71.811 E36.10964
G1 X141.739 Y72.209 E36.12274
G1 X142.209 Y72.669 E36.13587
